X: 16178
T: Green Mountain, The
R: reel
M: 4/4
K: Dmajor
B|AFFB AFEF|DFFB ABde|fedf efdB|Adfd efdB|
AFFB AFEF|DFFB ABde|fAdf efdB|AFEF DcdB||
AFFB AFEF|DFFB ABde|fedf efdB|Adfd efdB|
AFFB AFEF|DFFB ABde|fedf efdB|AFEF D3e||
|:faaf bfaf|defd efde|fedf efdB|Adfd edBd|
faaf bfaf|defd efde|fedf efdB|1 AFEF D3e:|2 AFEF D cd||

